packages/katcn/src/icons/svg/noSound.svg

<svg width="24" height="25" viewBox="0 0 24 25" fill="none" xmlns="http://www.w3.org/2000/svg">
<path fill-rule="evenodd" clip-rule="evenodd" d="M2.29289 2.5009C2.68342 2.11038 3.31658 2.11038 3.70711 2.5009L8.69784 7.49164L8.7147 7.5085L21.7071 20.5009C22.0976 20.8914 22.0976 21.5246 21.7071 21.9151C21.3166 22.3056 20.6834 22.3056 20.2929 21.9151L17 18.6222V20.4054C17 21.5691 16.3512 22.5109 15.447 22.947C14.5398 23.3847 13.4006 23.2953 12.5345 22.4959C10.2771 20.5697 8.04098 18.966 5.82532 17.771C5.8139 17.7649 5.8026 17.7585 5.79142 17.7519C4.99994 17.2844 4.26707 16.6692 3.75962 15.8824C3.23697 15.072 3 14.0483 3 13.1697C3 11.1664 4.08238 9.39269 5.78336 8.48685C6.00834 8.33379 6.23609 8.19138 6.44132 8.06355L2.29289 3.91511C1.90237 3.52459 1.90237 2.89143 2.29289 2.5009ZM7.72005 9.62293C7.77634 9.58751 7.83364 9.55119 7.89162 9.51385L15 16.6222V20.4054C15 20.7922 14.7988 21.0391 14.578 21.1457C14.367 21.2475 14.1164 21.238 13.8848 21.0204C13.8732 21.0096 13.8614 20.999 13.8494 20.9887C11.5181 18.998 9.16558 17.3023 6.79261 16.0204C6.19189 15.6631 5.73036 15.248 5.44038 14.7984C5.16303 14.3683 5 13.7381 5 13.1697C5 11.8877 5.69319 10.7843 6.75914 10.2334C6.79657 10.2141 6.83274 10.1924 6.86743 10.1685C7.07715 10.024 7.28132 9.89674 7.50175 9.7594L7.50176 9.75939L7.50182 9.75936L7.50205 9.75921C7.5728 9.71513 7.64523 9.67 7.72005 9.62293ZM13.7011 5.38919C13.9867 5.17437 14.3177 5.16433 14.5838 5.28616C14.8512 5.40858 15 5.63309 15 5.89353V11.208C15 11.7603 15.4477 12.208 16 12.208C16.5523 12.208 17 11.7603 17 11.208V5.89353C17 3.56972 14.2873 2.45782 12.5091 3.78322C12.1433 4.04556 11.7813 4.33077 11.4401 4.59961L11.4312 4.60667C11.0777 4.88514 10.7459 5.14634 10.4177 5.38137C9.96873 5.70295 9.86544 6.32764 10.187 6.77664C10.5086 7.22563 11.1333 7.32892 11.5823 7.00733C11.951 6.74329 12.316 6.45568 12.6599 6.18472L12.6689 6.17766C13.0223 5.89919 13.3542 5.63799 13.6823 5.40296L13.7011 5.38919Z" fill="black"/>
</svg>

<svg xmlns="http://www.w3.org/2000/svg" fill="none" viewBox="0 0 24 25"><path fill="#000" fill-rule="evenodd" d="M2.293 2.5a1 1 0 0 1 1.414 0l4.99 4.992.018.016 12.992 12.993a1 1 0 0 1-1.414 1.414L17 18.622v1.783c0 1.164-.649 2.106-1.553 2.542a2.58 2.58 0 0 1-2.912-.451c-2.258-1.926-4.494-3.53-6.71-4.725l-.034-.02C5 17.285 4.267 16.67 3.76 15.883c-.523-.81-.76-1.834-.76-2.712 0-2.004 1.082-3.777 2.783-4.683.225-.153.453-.296.658-.423l-4.148-4.15a1 1 0 0 1 0-1.414M7.72 9.624l.172-.11L15 16.624v3.782c0 .387-.201.634-.422.74-.211.102-.462.093-.693-.125l-.036-.031c-2.33-1.991-4.683-3.687-7.056-4.969-.601-.357-1.063-.772-1.353-1.222-.277-.43-.44-1.06-.44-1.628 0-1.282.693-2.386 1.76-2.937a1 1 0 0 0 .107-.065c.21-.144.414-.271.635-.409zm5.981-4.234a.85.85 0 0 1 .883-.103c.267.123.416.347.416.608v5.314a1 1 0 1 0 2 0V5.894c0-2.324-2.713-3.436-4.49-2.11a30 30 0 0 0-1.07.816l-.009.007c-.353.278-.685.54-1.013.774a1 1 0 0 0 1.164 1.626 30 30 0 0 0 1.078-.822l.009-.007c.353-.279.685-.54 1.013-.775z" clip-rule="evenodd"/></svg>
